tools/download-figma-icons/icons/action/person.svg

<svg width="24" height="24" viewBox="0 0 24 24" fill="none" xmlns="http://www.w3.org/2000/svg">
<path fill-rule="evenodd" clip-rule="evenodd" d="M18 6C18 2.68629 15.3137 0 12 0C8.6863 0 6.00001 2.68629 6.00001 6C6.00001 9.31371 8.6863 12 12 12C15.3137 12 18 9.31371 18 6ZM8.00001 6C8.00001 3.79086 9.79087 2 12 2C14.2091 2 16 3.79086 16 6C16 8.20914 14.2091 10 12 10C9.79087 10 8.00001 8.20914 8.00001 6ZM12.0267 14.0003C12.0179 14.0001 12.0089 14 12 14C8.84954 14 6.20581 14.4962 4.07171 15.5037C1.71005 16.6186 0.394358 19.1351 0.0574902 22.9086C0.0083815 23.4587 0.414513 23.9445 0.96461 23.9936C1.51471 24.0427 2.00046 23.6365 2.04957 23.0864C2.32947 19.9511 3.31049 18.0747 4.92551 17.3123C6.76808 16.4424 9.12529 16 12 16C12.0089 16 12.0179 15.9999 12.0267 15.9997C12.0356 15.9999 12.0445 16 12.0535 16C14.9282 16 17.2854 16.4424 19.128 17.3123C20.743 18.0747 21.724 19.9511 22.0039 23.0864C22.053 23.6365 22.5388 24.0427 23.0889 23.9936C23.639 23.9445 24.0451 23.4587 23.996 22.9086C23.6591 19.1351 22.3434 16.6186 19.9818 15.5037C17.8477 14.4962 15.2039 14 12.0535 14C12.0445 14 12.0356 14.0001 12.0267 14.0003Z" fill="black"/>
</svg>

<svg width="24" height="24" viewBox="0 0 24 24" fill="none" xmlns="http://www.w3.org/2000/svg"><path fill-rule="evenodd" clip-rule="evenodd" d="M18 6A6 6 0 1 0 6 6a6 6 0 0 0 12 0ZM8 6a4 4 0 1 1 8 0 4 4 0 0 1-8 0Zm4.027 8H12c-3.15 0-5.794.496-7.928 1.504C1.71 16.619.394 19.135.057 22.909a1 1 0 1 0 1.993.177c.28-3.135 1.26-5.011 2.876-5.774C6.768 16.442 9.126 16 12 16a1.182 1.182 0 0 0 .053 0c2.875 0 5.232.442 7.075 1.312 1.615.763 2.596 2.64 2.876 5.774a1 1 0 0 0 1.992-.177c-.337-3.774-1.653-6.29-4.014-7.405C17.848 14.496 15.204 14 12.054 14h-.027Z" fill="currentColor"/></svg>
